X:1
T:One by One
T:One by One
T:Anthony Johnson Showalter
T:Anthony Johnson Showalter, 1889
T:Public Domain Courtesy of the Cyber Hymnal™
T:Public Domain Courtesy of the Cyber Hymnal™
C:Anthony Johnson Showalter
Z:Public Domain
Z:Courtesy of the Cyber Hymnal™
%%score ( 1 2 ) ( 3 4 )
L:1/8
Q:1/4=105
M:4/4
K:G
V:1 treble 
V:2 treble 
V:3 bass 
V:4 bass 
V:1
 [DG]2 [DG]2 [DG]>[DF] [DG]>[DA] | [GB]2 [Gd]2 [GB]4 | [DG]2 [DG]2 [DG]>[DF] [DG]>[DA] | %3
w: 1.~We are tra- veling to a|bet- ter land—|One by one we’ll all be|
w: 2.~We are draw- ing near- er|ev- ery day—|One by one we’ll all be|
w: 3.~There we’ll meet our loved ones|gone be- fore—|One by one we’ll all be|
w: 4.~Come, my bro- ther, join the|hap- py throng—|One by one we’ll all be|
 [GB]2 [GB]2 [FA]4 | [DG]2 [DG]2 [DG]>[DF] [DG]>[DA] | [GB]2 [Gd]2 [GB]4 | %6
w: ga- thered home,|And we’ll trust the Sav- ior’s|guid- ing hand:|
w: ga- thered home—|To that joy that fad- eth|not a- way:|
w: ga- thered home,|And we’ll dwell with Je- sus|ev- er- more:|
w: ga- thered home—|Sing- ing now re- demp- tion’s|ho- ly song:|
 [DG]2 [DG]2 [DG]>[DF] [DG]>[DA] | [GB]2 [FA]2 G4 ||"^Refrain" [GB]4 [Gd]4 | [GB]4 [DG]4 | %10
w: One by one we’ll all be|ga- thered home.|||
w: One by one we’ll all be|ga- thered home.|Gath- ering,|gath- ering,|
w: One by one we’ll all be|ga- thered home.|||
w: One by one we’ll all be|ga- thered home.|||
 [EG]2 [EG]2 [EG]>[EA] [EG]>[CE] | [B,D]2 [DG]2 [DA]4 | [DB]4 [Dd]4 | [GB]4 [DG]4 | %14
w: ||||
w: One by one we’ll all be|ga- thered home;|Gath- ering,|gath- ering,|
w: ||||
w: ||||
 [FA]2 [FA]2 [FA]>[FA] G>[GA] | [GB]2 [FA]2 G4 |] %16
w: ||
w: One by one we’ll all be|ga- thered home;|
w: ||
w: ||
V:2
 x8 | x8 | x8 | x8 | x8 | x8 | x8 | x4 G4 || x8 | x8 | x8 | x8 | x8 | x8 | x6 G3/2 x/ | x4 G4 |] %16
V:3
 [G,B,]2 [G,B,]2 [G,B,]>[G,A,] [G,B,]>[G,C] | [G,D]2 [G,B,]2 [G,D]4 | %2
w: ~ ~ ~ ~ ~ ~|~ ~ ~|
 [G,B,]2 [G,B,]2 [G,B,]>[G,A,] [G,B,]>[G,C] | [G,D]2 [G,D]2 [D,D]4 | %4
w: ~ ~ ~ ~ ~ ~|~ ~ ~|
 [G,B,]2 [G,B,]2 [G,B,]>[G,A,] [G,B,]>[G,C] | [G,D]2 [G,B,]2 [G,D]4 | %6
w: ~ ~ ~ ~ ~ ~|~ ~ ~|
 [G,B,]2 [G,B,]2 [G,B,]>[G,A,] [G,B,]>[G,C] | [D,D]2 [D,C]2 [G,B,]4 || %8
w: ~ ~ ~ ~ ~ ~|~ ~ ~|
 [G,D]2 [G,D]>[G,D] [G,B,]2 [G,B,]2 | [G,D]2 [G,D]>[G,D] [G,B,]2 [G,B,]2 | %10
w: Gath- ering to- ge- ther,|ga- thering to- ge- ther,|
 [C,C]2 [C,C]2 [C,C]>[C,C] [C,C]>[C,G,] | [G,,G,]2 [B,,G,]2 [D,F,]4 | G,2 G,>G, [G,B,]2 [G,B,]2 | %13
w: ~ ~ ~ ~ ~ ~|~ ~ ~|Gath- ering to- ge- ther,|
 [G,D]2 [G,D]>[G,D] [G,B,]2 [G,B,]2 | [D,D]2 [D,D]2 [D,D]>[D,D] [D,B,]>[D,C] | %15
w: ga- thering to- ge- ther,||
 [D,D]2 [D,C]2 [G,,G,B,]4 |] %16
w: |
V:4
 x8 | x8 | x8 | x8 | x8 | x8 | x8 | x8 || x8 | x8 | x8 | x8 | G,2 G,>G, x4 | x8 | x8 | x8 |] %16

